X: 1
T: Long John's Wedding
R: jig
Z: 2004 John Chambers <jc:trillian.mit.edu>
M: 6/8
L: 1/8
K: A
e \
| "A"c2e efg | agf e2d | c2A ABc | "Bm"d2c "E7"Bcd \
| "A"c2e efg | agf e2d | c2e "E7"dcB | "A"A3 A2 :|
|: "E7"e \
| "A"A2B c2d | efe e3 | "Bm"d2B "E7"Bcd | "A"e2d "A7"cBA \
| "D"f2g agf | "A"e2d c2a |  c2e "E7"dcB | "A"A3 A2 :|
